X: 111
T:Out on the Ocean
M:6/8
K:A
F:http://blackrosetheband.googlepages.com/ABCTUNES.ABC May 2009
L:1/8
F|"A"E2 c cBA|cec BAB|"D"AFE A2 B|"E"c2 c BAF|
"A"Ecc cBA|cec BAB|"D"AFE"E"A2 B|1 "A"cAA A2 F:|2 "A"c2 A Ace|
|:"D"f2 f fec|fgf fec|"A"e2 e efg|agf ecB|
A2 B c2 e|"D"(3fga f ecB|"E"AFE A2 B|1 "A"cAF Ace:|2 "A"cAF A3||

